!!!SOCIAL_FUNCTION:	war songs
!!!PDT:	1913
!!!OTL: No_87_In_the_South.krn
!!!REG: Great_Lakes
!!!LANG: Non-Tone
!!!LING_GROUP: Algonquin
**kern	**kern
*staff2	*staff1
=1-	=1-
*clefF4	*clefF4
*k[f#]	*k[f#]
*M2/4	*M2/4
12GG^/	4..d\
12r	.
12GG/	.
12GG^/	.
12r	.
12GG/	.
.	16B\
=2	=2
12GG^/	8.d\L
12r	.
12GG/	.
.	16B\Jk
12GG^/	(16B\LL
.	16B\)
12r	.
.	16A\
12GG/	.
.	16G\JJ
=3	=3
2r	2G\
=4	=4
2r	(16B\LL
.	16B\
.	16A\
.	16G\JJ)
.	4G\
=5	=5
2r	4.G\
.	8E\
=6	=6
2r	4G\
.	4G\
=7||	=7||
*M3/4	*M3/4
2.r	2.G\
=8||	=8||
*M2/4	*M2/4
2r	4..d\
.	16B\
=9	=9
2r	8.d\L
.	16B\Jk
.	(16B\LL
.	16B\)
.	16A\
.	16G\JJ
=10	=10
2r	2G\
=11	=11
2r	(16B\LL
.	16B\
.	16A\
.	16G\JJ)
.	4G\
=12	=12
2r	4.G\
.	8E\
=13	=13
2r	12G\L
.	12G\
.	12G\J
.	4E\
=14	=14
2r	4.D\
.	8BB/
=15	=15
2r	4D\
.	4D\
=16	=16
2r	4.G\
.	8E\
=17	=17
2r	12G\L
.	12G\
.	12G\J
.	4E\
=18	=18
2r	4.D\
.	8BB/
=19	=19
2r	12E\L
.	12D\
.	12D\J
.	12D\L
.	12D\
.	12BB\J
=20||	=20||
*M3/4	*M3/4
2.r	8.GG/L
.	16GG/Jk
.	4.GG/
.	8GG/
=21	=21
2.r	2.GG/
=22||	=22||
*M2/4	*M2/4
2r	8.G\L
.	16G\Jk
.	4G\
=23||	=23||
*M3/4	*M3/4
2.r	16G\LL
.	[16G\J
.	8G\J]
.	8B\L
.	8B\J
.	4G\
=24||	=24||
*M2/4	*M2/4
2r	8.G\L
.	16G\Jk
.	4G\
=25||	=25||
*M3/4	*M3/4
2.r	(8.G\L
.	16E\Jk)
.	8.G\L
.	16E\Jk
.	4E\
=26||	=26||
*M2/4	*M2/4
2r	4.D\
.	8BB/
=27	=27
2r	4D\
.	4D\
=28	=28
2r	4.G\
.	8E\
=29	=29
2r	4G\
.	4E\
=30	=30
2r	4.D\
.	8BB/
=31	=31
2r	12E\L
.	12D\
.	12D\J
.	12D\L
.	12D\
.	12BB\J
=32||	=32||
*M3/4	*M3/4
2.r	8.GG/L
.	16GG/Jk
.	4.GG/
.	8GG/
=33	=33
2.r	2.GG/
==	==
*-	*-
